assets/svg/logo-loveknitting-sm.svg

<svg width="75" height="105" viewBox="0 0 75 105" xmlns="http://www.w3.org/2000/svg"><title>logo-loveknitting</title><g fill="#E8503C" fill-rule="evenodd"><path d="M72.3 48.7c-.3 2.1-.9 4.3-1.6 6.5-7.4 9.9-16.6 18.6-27.2 25.5-.8-.4-1.6-.9-2.4-1.4 12.4-8.4 23.1-19.2 31.4-32 0 .6-.1 1-.2 1.4zM47.7 83.1c-.8-.4-1.6-.9-2.4-1.3 8.9-6 16.9-13.2 23.7-21.5-1 2.7-2.1 5.3-3.3 7.9-5.4 5.5-11.4 10.5-18 14.9zm10.3 0c-1 1.8-1.8 3.2-2.3 4-.5-.2-1.2-.5-2-.9 1.5-1 2.9-2.1 4.3-3.1zm2.2-3.9c-2.6 2.1-5.4 4.1-8.2 6-.8-.4-1.6-.8-2.5-1.3 5-3.3 9.7-7.1 14.1-11.2-1.2 2.4-2.4 4.6-3.4 6.5zM31.3 36.5c8.2 4.5 16 10.2 23 17-.4.5-.8.9-1.2 1.4-8-7.3-17-13.4-26.5-18h.1c1.5-.5 3-.6 4.6-.4zm11.5 2.2c-.1.9-.2 1.9-.3 2.8-.2-.2-.5-.3-.7-.5l.5-1.2c.2-.3.3-.7.5-1.1zm2.4-4c1-1.4 2.2-2.7 3.6-3.8-.9 4.6-1.6 9.2-1.9 13.9-.9-.7-1.7-1.4-2.6-2 .1-2.8.4-5.5.9-8.1zm8.8-6c-1.6 6.5-2.5 13-2.9 19.6-.9-.8-1.7-1.5-2.6-2.2.4-5.5 1.1-11 2.3-16.4.4-.2.9-.4 1.3-.5.7-.2 1.3-.4 1.9-.5zm13.6 3.9L67 35c-1.3 2.5-2.8 4.9-4.3 7.2.6-3.9 1.4-7.7 2.3-11.4.9.5 1.8 1.1 2.6 1.8zm-7-3.7c1 .2 1.9.6 2.8 1-1.3 5.1-2.3 10.3-2.9 15.6-1 1.5-2.1 2.9-3.2 4.3.4-7.1 1.6-14.1 3.3-20.9zm-5.2 23.2s0 .1 0 0c-.9-.8-1.8-1.6-2.6-2.4.3-7.2 1.4-14.3 3.1-21.3 1-.1 2 0 3 .1-2 7.9-3.2 15.7-3.5 23.6zm13.5-17c.1-.2.2-.5.4-.7.7.9 1.3 1.8 1.8 2.8C62.7 52.6 50.6 66 35.6 76c-.7-.5-1.5-1-2.2-1.4 14.7-10 26.9-23.4 35.5-39.5zM34.6 71.7l-2.1 1.5c-1.4-.8-2.9-1.6-4.4-2.3-2.6-2-5-4-6.9-6.1 4.6 2 9.1 4.3 13.4 6.9zm3.5-2.6c-.6.5-1.3 1-1.9 1.5-5.7-3.5-11.6-6.4-17.8-8.8-.8-1.1-1.5-2.3-2-3.6 7.5 2.7 14.8 6.4 21.7 10.9zm3.1-2.6L39.4 68C32 63 24 59 15.7 56c-.2-1-.4-2-.4-3 9 3.2 17.8 7.8 25.9 13.5zm3-2.6c-.5.5-1.1 1-1.6 1.4-8.4-6-17.6-10.8-27.3-14.3.1-.9.2-1.8.4-2.7 10 3.8 19.7 8.9 28.5 15.6zM21.7 39.3c.8-.6 1.7-1.2 2.7-1.6 9.9 4.6 19.2 10.7 27.7 18.4-.4.5-.8.9-1.3 1.4-8.9-7.6-18.7-13.7-29.1-18.2zm27.9 19.4l-1.4 1.4c-9.1-7.4-19.1-13.2-29.9-17.4.6-.8 1.2-1.5 1.8-2.1C30.7 45 40.6 51 49.6 58.7zM17.3 44.2c10.5 4 20.5 9.7 29.6 17.1-.5.5-1 1-1.5 1.4-9-6.8-18.8-12.2-29.3-16.1l1.2-2.4zm54.9-4.3c.4 1.3.6 2.6.7 3.9-8.3 13.7-19.6 25.6-33.3 34.7-.8-.5-1.5-.9-2.3-1.4C51.5 67.5 63.4 54.7 72 39.3c0 .2.1.4.2.6zM51.5 27.1c-2.6.8-7.2 3.2-10.7 10.8-7-4.4-12.2-3.9-14.8-3.1-9.6 2.9-15 13.1-12.1 22.7 1 3.2 2.8 6.1 5.3 8.3 4.8 5.1 12.3 10.6 22.5 16.4 7.6 4.3 13.9 7.2 13.9 7.2l.8.4.6-.8c0-.1 3.7-5.9 7.6-13.7 5.3-10.5 8.6-19.3 9.7-26.1.9-3.2.8-6.6-.2-9.9-2.8-9.6-13-15.1-22.6-12.2z"/><path d="M53.2 96.9c-.4-2.2-1.4-5.6-2-7.7L49.9 85c-1.1-.3-2.4-.6-3.7-.9l2 6c.7 2.1 2 5.4 2.9 7.4l2.6 5.8c.9 2 1.3 1.9.8-.3l-1.3-6.1zM72 95l-3.7-5.2c-1.3-1.8-3.5-4.6-4.9-6.3L61.2 81c-.7.9-1.5 1.7-2.1 2.4l2 2.2c1.5 1.6 4 4.2 5.6 5.7l4.7 4.3c1.6 1.4 1.9 1.2.6-.6zM36.7 53.2L9.8 22.7c1.2-1.9 1-4.4-.6-6.2-1.9-2.2-5.2-2.4-7.4-.5s-2.4 5.3-.5 7.4c1.6 1.8 4 2.2 6.1 1.3L28 48.1c2.3 1.3 5.6 3.2 8.7 5.1z"/><path d="M22.1 10.5l13.7 42.1c1.5.9 2.9 1.7 4.2 2.5L25.1 9.6c1.8-1.3 2.7-3.7 1.9-5.9C26.1.9 23.1-.6 20.4.3c-2.8.9-4.3 3.9-3.4 6.6.8 2.2 2.9 3.7 5.1 3.6"/></g></svg>

<?xml version="1.0" encoding="UTF-8" standalone="no"?>
<svg width="75px" height="105px" viewBox="0 0 75 105" version="1.1" xmlns="http://www.w3.org/2000/svg" xmlns:xlink="http://www.w3.org/1999/xlink">
    <!-- Generator: Sketch 3.8.3 (29802) - http://www.bohemiancoding.com/sketch -->
    <title>logo-loveknitting</title>
    <desc>Created with Sketch.</desc>
    <defs></defs>
    <g id="Page-1" stroke="none" stroke-width="1" fill="none" fill-rule="evenodd">
        <g id="logo-loveknitting" fill="#E8503C">
            <path d="M72.3,48.7 C72,50.8 71.4,53 70.7,55.2 C63.3,65.1 54.1,73.8 43.5,80.7 C42.7,80.3 41.9,79.8 41.1,79.3 C53.5,70.9 64.2,60.1 72.5,47.3 C72.5,47.9 72.4,48.3 72.3,48.7 L72.3,48.7 Z M47.7,83.1 C46.9,82.7 46.1,82.2 45.3,81.8 C54.2,75.8 62.2,68.6 69,60.3 C68,63 66.9,65.6 65.7,68.2 C60.3,73.7 54.3,78.7 47.7,83.1 L47.7,83.1 Z M58,83.1 C57,84.9 56.2,86.3 55.7,87.1 C55.2,86.9 54.5,86.6 53.7,86.2 C55.2,85.2 56.6,84.1 58,83.1 L58,83.1 Z M60.2,79.2 C57.6,81.3 54.8,83.3 52,85.2 C51.2,84.8 50.4,84.4 49.5,83.9 C54.5,80.6 59.2,76.8 63.6,72.7 C62.4,75.1 61.2,77.3 60.2,79.2 L60.2,79.2 Z M31.3,36.5 C39.5,41 47.3,46.7 54.3,53.5 C53.9,54 53.5,54.4 53.1,54.9 C45.1,47.6 36.1,41.5 26.6,36.9 L26.7,36.9 C28.2,36.4 29.7,36.3 31.3,36.5 L31.3,36.5 Z M42.8,38.7 C42.7,39.6 42.6,40.6 42.5,41.5 C42.3,41.3 42,41.2 41.8,41 L42.3,39.8 C42.5,39.5 42.6,39.1 42.8,38.7 L42.8,38.7 Z M45.2,34.7 C46.2,33.3 47.4,32 48.8,30.9 C47.9,35.5 47.2,40.1 46.9,44.8 C46,44.1 45.2,43.4 44.3,42.8 C44.4,40 44.7,37.3 45.2,34.7 L45.2,34.7 Z M54,28.7 C52.4,35.2 51.5,41.7 51.1,48.3 C50.2,47.5 49.4,46.8 48.5,46.1 C48.9,40.6 49.6,35.1 50.8,29.7 C51.2,29.5 51.7,29.3 52.1,29.2 C52.8,29 53.4,28.8 54,28.7 L54,28.7 Z M67.6,32.6 L67,35 C65.7,37.5 64.2,39.9 62.7,42.2 C63.3,38.3 64.1,34.5 65,30.8 C65.9,31.3 66.8,31.9 67.6,32.6 L67.6,32.6 Z M60.6,28.9 C61.6,29.1 62.5,29.5 63.4,29.9 C62.1,35 61.1,40.2 60.5,45.5 C59.5,47 58.4,48.4 57.3,49.8 C57.7,42.7 58.9,35.7 60.6,28.9 L60.6,28.9 Z M55.4,52.1 C55.4,52.1 55.4,52.2 55.4,52.1 C54.5,51.3 53.6,50.5 52.8,49.7 C53.1,42.5 54.2,35.4 55.9,28.4 C56.9,28.3 57.9,28.4 58.9,28.5 C56.9,36.4 55.7,44.2 55.4,52.1 L55.4,52.1 Z M68.9,35.1 C69,34.9 69.1,34.6 69.3,34.4 C70,35.3 70.6,36.2 71.1,37.2 C62.7,52.6 50.6,66 35.6,76 C34.9,75.5 34.1,75 33.4,74.6 C48.1,64.6 60.3,51.2 68.9,35.1 L68.9,35.1 Z M34.6,71.7 L32.5,73.2 C31.1,72.4 29.6,71.6 28.1,70.9 C25.5,68.9 23.1,66.9 21.2,64.8 C25.8,66.8 30.3,69.1 34.6,71.7 L34.6,71.7 Z M38.1,69.1 C37.5,69.6 36.8,70.1 36.2,70.6 C30.5,67.1 24.6,64.2 18.4,61.8 C17.6,60.7 16.9,59.5 16.4,58.2 C23.9,60.9 31.2,64.6 38.1,69.1 L38.1,69.1 Z M41.2,66.5 L39.4,68 C32,63 24,59 15.7,56 C15.5,55 15.3,54 15.3,53 C24.3,56.2 33.1,60.8 41.2,66.5 L41.2,66.5 Z M44.2,63.9 C43.7,64.4 43.1,64.9 42.6,65.3 C34.2,59.3 25,54.5 15.3,51 C15.4,50.1 15.5,49.2 15.7,48.3 C25.7,52.1 35.4,57.2 44.2,63.9 L44.2,63.9 Z M21.7,39.3 C22.5,38.7 23.4,38.1 24.4,37.7 C34.3,42.3 43.6,48.4 52.1,56.1 C51.7,56.6 51.3,57 50.8,57.5 C41.9,49.9 32.1,43.8 21.7,39.3 L21.7,39.3 Z M49.6,58.7 L48.2,60.1 C39.1,52.7 29.1,46.9 18.3,42.7 C18.9,41.9 19.5,41.2 20.1,40.6 C30.7,45 40.6,51 49.6,58.7 L49.6,58.7 Z M17.3,44.2 C27.8,48.2 37.8,53.9 46.9,61.3 C46.4,61.8 45.9,62.3 45.4,62.7 C36.4,55.9 26.6,50.5 16.1,46.6 L17.3,44.2 L17.3,44.2 Z M72.2,39.9 C72.6,41.2 72.8,42.5 72.9,43.8 C64.6,57.5 53.3,69.4 39.6,78.5 C38.8,78 38.1,77.6 37.3,77.1 C51.5,67.5 63.4,54.7 72,39.3 C72,39.5 72.1,39.7 72.2,39.9 L72.2,39.9 Z M51.5,27.1 C48.9,27.9 44.3,30.3 40.8,37.9 C33.8,33.5 28.6,34 26,34.8 C16.4,37.7 11,47.9 13.9,57.5 C14.9,60.7 16.7,63.6 19.2,65.8 C24,70.9 31.5,76.4 41.7,82.2 C49.3,86.5 55.6,89.4 55.6,89.4 L56.4,89.8 L57,89 C57,88.9 60.7,83.1 64.6,75.3 C69.9,64.8 73.2,56 74.3,49.2 C75.2,46 75.1,42.6 74.1,39.3 C71.3,29.7 61.1,24.2 51.5,27.1 L51.5,27.1 Z" id="Shape"></path>
            <path d="M53.2,96.9 C52.8,94.7 51.8,91.3 51.2,89.2 L49.9,85 C48.8,84.7 47.5,84.4 46.2,84.1 L48.2,90.1 C48.9,92.2 50.2,95.5 51.1,97.5 L53.7,103.3 C54.6,105.3 55,105.2 54.5,103 L53.2,96.9 L53.2,96.9 Z M72,95 L68.3,89.8 C67,88 64.8,85.2 63.4,83.5 L61.2,81 C60.5,81.9 59.7,82.7 59.1,83.4 L61.1,85.6 C62.6,87.2 65.1,89.8 66.7,91.3 L71.4,95.6 C73,97 73.3,96.8 72,95 L72,95 Z M36.7,53.2 L9.8,22.7 C11,20.8 10.8,18.3 9.2,16.5 C7.3,14.3 4,14.1 1.8,16 C-0.4,17.9 -0.6,21.3 1.3,23.4 C2.9,25.2 5.3,25.6 7.4,24.7 L28,48.1 C30.3,49.4 33.6,51.3 36.7,53.2 L36.7,53.2 Z" id="Shape"></path>
            <path d="M22.1,10.5 L35.8,52.6 C37.3,53.5 38.7,54.3 40,55.1 L25.1,9.6 C26.9,8.3 27.8,5.9 27,3.7 C26.1,0.9 23.1,-0.6 20.4,0.3 C17.6,1.2 16.1,4.2 17,6.9 C17.8,9.1 19.9,10.6 22.1,10.5" id="Shape"></path>
        </g>
    </g>
</svg>
